!!!!SEGMENT: Any3016-Gentilz_gallans--Second_livre_de_chansons.krn
!!!id: Any3016
!!!AGN: Chanson
!!!voices: 3
!!!COM: Anonymous
!!!OTL: Gentilz gallans (Second livre de chansons)
**kern	**kern	**kern
*part3	*part2	*part1
*staff3	*staff2	*staff1
*I"Bassus	*I"Tenor II	*I"Tenor I
*I'B	*I'T. II	*I'T. I
*clefF4	*clefGv2	*clefGv2
*k[]	*k[]	*k[]
*C:	*C:	*C:
*M2/1	*M2/1	*M2/1
*met(C|)	*met(C|)	*met(C|)
=1	=1	=1
0r	1r	2r
.	.	2d
.	2r	1d
.	2d	.
=2	=2	=2
2r	1d	1B
2G	.	.
1G	1B	2G
.	.	[2g
=3	=3	=3
1E	1.G	4g]
.	.	4f
.	.	4e
.	.	4d
2C	.	2e
2C	2G	[2c
=4	=4	=4
2C	1.c	4c]
.	.	4B
1F	.	4A
.	.	4G
.	.	2A
4E	2d	2A
4D	.	.
=5	=5	=5
4E	2B	1G
4F	.	.
1G	4A	.
.	4G	.
.	2A	2r
2F#i	2A	2d
=6	=6	=6
0G	1G	1d
.	2r	1B
.	2d	.
=7	=7	=7
2r	1d	1G
2G	.	.
1G	1B	2r
.	.	[2g
=8	=8	=8
1E	1.G	4g]
.	.	4f
.	.	4e
.	.	4d
2C	.	2e
2C	2G	[2c
=9	=9	=9
2C	1.c	4c]
.	.	4B
1F	.	4A
.	.	4G
.	.	2A
4E	2d	2A
4D	.	.
=10	=10	=10
4E	2B	1.G
4F	.	.
1G	4A	.
.	4G	.
.	2A	.
2F	2A	2c
=11	=11	=11
2E	1G	2c
2F	.	2c
2F	2r	1c
2E	2G	.
=12	=12	=12
2F	1F	2r
2F	.	2f
1C	1G	2f
.	.	2e
=13	=13	=13
2r	2.A	2f
2F	.	2f
.	4G	.
2F	2F	[1c
2E	2G	.
=14	=14	=14
2F	[0A	1c]
4E	.	.
4D	.	.
2C	.	2r
2D	.	2f
=15	=15	=15
2D	0A_	2f
2C	.	2e
2D	.	2f
2E	.	4e
.	.	4d
=16	=16	=16
0F;	0A;]	0c;
=17||	=17||	=17||
1G	0r	1r
2G	.	1d
2G	.	.
=18	=18	=18
1D	1d	2d
.	.	2d
2D	2d	1A
2D	2d	.
=19	=19	=19
2.F	1A	2A
.	.	2A
4G	.	.
2A	2A	2.c
2A	2A	.
.	.	4d
=20	=20	=20
2.A	2c	2e
.	2c	2e
8GL	.	.
8FJ	.	.
2E	2c	2e
2C	2c	4d
.	.	4c
=21	=21	=21
2.E	2.G	2B
.	.	2e
4F	4A	.
2.G	2B	4d
.	.	4c
.	2B	4B
4F	.	4A
=22	=22	=22
2E	1c	2G
4D	.	1g
4C	.	.
1D	1A	.
.	.	2f#i
=23	=23	=23
0G	0G	2g
.	.	2g
.	.	2g
.	.	2g
=24	=24	=24
1G	0r	1d
2G	.	2d
2G	.	2d
=25	=25	=25
1D	1d	2f
.	.	2f
2D	2d	2f
2D	2d	2f
=26	=26	=26
2F	1A	1c
2F	.	.
2F	2A	2r
2F	2A	2f
=27	=27	=27
1C	2c	4e
.	.	4d
.	2c	4c
.	.	4B
2r	2c	4A
.	.	4G
2F	2c	[2A
=28	=28	=28
2E	2.G	2A]
2E	.	2G
.	4A	.
2D	2B	2F
[2E	2B	[2G
=29	=29	=29
2E]	1c	2G]
4D	.	1g
4C	.	.
1D	1A	.
.	.	2f#i
=30	=30	=30
1G	0G	0g
2r	.	.
2d	.	.
=31	=31	=31
2d	1r	2r
2d	.	2d
1B	2r	2d
.	2d	2d
=32	=32	=32
1G	2d	1B
.	2d	.
2r	1B	1G
2G	.	.
=33	=33	=33
2G	1.G	2r
2G	.	2g
1E	.	2g
.	2G	2g
=34	=34	=34
2C	1.c	1e
2C	.	.
2F	.	2c
2F	2d	2A
=35	=35	=35
2G	2B	2A
2E	4A	2G
.	4G	.
2D	2A	2G
2d	2A	2F#i
=36	=36	=36
2d	1G	2G
2d	.	2d
1B	2r	2d
.	2d	2d
=37	=37	=37
1G	2d	1B
.	2d	.
2r	1B	1G
2G	.	.
=38	=38	=38
2G	1.G	2r
2G	.	2g
1E	.	2g
.	2G	2g
=39	=39	=39
2C	1.c	1e
2C	.	.
2F	.	2c
2F	2d	2A
=40	=40	=40
2G	2B	2A
2E	4A	2G
.	4G	.
2D	2A	2G
2D	2A	2F#i
=41	=41	=41
2.E	1G	2G
.	.	2c
4C	.	.
2F	2r	2c
2E	2G	2c
=42	=42	=42
1D	1F	1d
2r	1G	2r
2C	.	2c
=43	=43	=43
2F	2.A	2c
2F	.	2c
.	4G	.
2F	2F	2c
2E	2G	2c
=44	=44	=44
0D;	0A;	0d;
=45||	=45||	=45||
1G	0r	1r
2G	.	1d
2G	.	.
=46	=46	=46
1D	1d	2d
.	.	2d
2D	2d	1A
2D	2d	.
=47	=47	=47
2.F	1A	2A
.	.	2A
4G	.	.
2A	2A	2.c
2A	2A	.
.	.	4d
=48	=48	=48
2.A	2c	2e
.	2c	2e
8GL	.	.
8FJ	.	.
2E	2c	2.e
2C	2c	.
.	.	8dL
.	.	8cJ
=49	=49	=49
2.E	2.G	2B
.	.	2e
4F	4A	.
2.G	2B	4d
.	.	4c
.	2B	4B
4F	.	4A
=50	=50	=50
2E	1c	2G
4D	.	1g
4C	.	.
1D	1A	.
.	.	2f#i
=51	=51	=51
0G	0G	2g
.	.	2g
.	.	2g
.	.	2g
=52	=52	=52
1G	0r	1d
2G	.	2d
2G	.	2d
=53	=53	=53
1D	1d	2f
.	.	2f
2D	2d	2f
2D	2d	2f
=54	=54	=54
2F	1A	1c
2F	.	.
2F	2A	2r
2F	2A	2f
=55	=55	=55
1C	2c	4e
.	.	4d
.	2c	4c
.	.	4B
2r	2c	4A
.	.	4G
2F	2c	[2A
=56	=56	=56
2E	2.G	2A]
2E	.	2G
.	4A	.
2D	2B	2F
[2E	2B	[2G
=57	=57	=57
2E]	1c	2G]
4D	.	2.g
4C	.	.
1D	1A	.
.	.	4f#i
.	.	4f#i
.	.	8eL
.	.	8f#iJ
=58	=58	=58
00Gl	00Gl	00gl
==	==	==
*-	*-	*-
!!!system-decoration: [*]
!!!RDF**kern: i = editorial accidental
!!!RDF**kern: l = terminal long
!!!ENC: Benjamin Ory
!!!END: 2024/12/4
!!!EED: Benjamin Ory
!!!EEV: 2024/12/04
!!!YEC: Copyright 2024 Benjamin Ory, All Rights Reserved
!!!ONB: Translated from MusicXML on 2024/12/04